svg/file/unlink_2_fill.svg

<?xml version="1.0" encoding="UTF-8"?>
<svg width="24px" height="24px" viewBox="0 0 24 24" version="1.1" xmlns="http://www.w3.org/2000/svg" xmlns:xlink="http://www.w3.org/1999/xlink">
    <title>unlink_2_fill</title>
    <g id="页面-1" stroke="none" stroke-width="1" fill="none" fill-rule="evenodd">
        <g id="File" transform="translate(-672.000000, -144.000000)" fill-rule="nonzero">
            <g id="unlink_2_fill" transform="translate(672.000000, 144.000000)">
                 <path d="M24,0 L24,24 L0,24 L0,0 L24,0 Z M12.5934901,23.257841 L12.5819402,23.2595131 L12.5108777,23.2950439 L12.4918791,23.2987469 L12.4918791,23.2987469 L12.4767152,23.2950439 L12.4056548,23.2595131 C12.3958229,23.2563662 12.3870493,23.2590235 12.3821421,23.2649074 L12.3780323,23.275831 L12.360941,23.7031097 L12.3658947,23.7234994 L12.3769048,23.7357139 L12.4804777,23.8096931 L12.4953491,23.8136134 L12.4953491,23.8136134 L12.5071152,23.8096931 L12.6106902,23.7357139 L12.6232938,23.7196733 L12.6232938,23.7196733 L12.6266527,23.7031097 L12.609561,23.275831 C12.6075724,23.2657013 12.6010112,23.2592993 12.5934901,23.257841 L12.5934901,23.257841 Z M12.8583906,23.1452862 L12.8445485,23.1473072 L12.6598443,23.2396597 L12.6498822,23.2499052 L12.6498822,23.2499052 L12.6471943,23.2611114 L12.6650943,23.6906389 L12.6699349,23.7034178 L12.6699349,23.7034178 L12.678386,23.7104931 L12.8793402,23.8032389 C12.8914285,23.8068999 12.9022333,23.8029875 12.9078286,23.7952264 L12.9118235,23.7811639 L12.8776777,23.1665331 C12.8752882,23.1545897 12.8674102,23.1470016 12.8583906,23.1452862 L12.8583906,23.1452862 Z M12.1430473,23.1473072 C12.1332178,23.1423925 12.1221763,23.1452606 12.1156365,23.1525954 L12.1099173,23.1665331 L12.0757714,23.7811639 C12.0751323,23.7926639 12.0828099,23.8018602 12.0926481,23.8045676 L12.108256,23.8032389 L12.3092106,23.7104931 L12.3186497,23.7024347 L12.3186497,23.7024347 L12.3225043,23.6906389 L12.340401,23.2611114 L12.337245,23.2485176 L12.337245,23.2485176 L12.3277531,23.2396597 L12.1430473,23.1473072 Z" id="MingCute" fill-rule="nonzero"></path>
                <path d="M8.00007,17.5 C8.77976882,17.5 9.420519,18.0949121 9.49320345,18.8555442 L9.50007,19 L9.50007,21 C9.50007,21.8284 8.8285,22.5 8.00007,22.5 C7.22037118,22.5 6.579621,21.9050879 6.50693655,21.1444558 L6.50007,21 L6.50007,19 C6.50007,18.1716 7.17164,17.5 8.00007,17.5 Z M16.2447,9.88048 C16.7938875,9.33130187 17.662909,9.29697824 18.2520757,9.7775091 L18.366,9.88048 L20.1319,11.6464 C22.475,13.9895 22.475,17.7885 20.1319,20.1317 C17.8488795,22.4147205 14.1836633,22.4732595 11.8296685,20.307317 L11.6466,20.1317 L9.88072,18.3658 C9.29493,17.78 9.29493,16.8302 9.88072,16.2444 C10.4298887,15.6952125 11.298997,15.6608883 11.8880922,16.1414273 L12.002,16.2444 L13.7679,18.0103 C14.9395,19.1819 16.839,19.1819 18.0106,18.0103 C19.135336,16.88566 19.1803254,15.0900952 18.1455683,13.9116927 L18.0106,13.7677 L16.2447,12.0018 C15.6589,11.416 15.6589,10.4663 16.2447,9.88048 Z M5.00007,15.5 C5.8285,15.5 6.50007,16.1716 6.50007,17 C6.50007,17.7796706 5.90518446,18.4204457 5.14453046,18.4931332 L5.00007,18.5 L4.00007,18.5 C3.17164,18.5 2.50007,17.8284 2.50007,17 C2.50007,16.2203294 3.09495554,15.5795543 3.85560954,15.5068668 L4.00007,15.5 L5.00007,15.5 Z M8.81804,8.81794 C9.36721812,8.26877125 10.2363005,8.2344482 10.8254749,8.71497086 L10.9394,8.81794 L15.182,13.0606 C15.7678,13.6464 15.7678,14.5961 15.182,15.1819 C14.6328125,15.7310875 13.763791,15.7654117 13.1746243,15.2848727 L13.0607,15.1819 L8.81804,10.9393 C8.23226,10.3535 8.23226,9.40373 8.81804,8.81794 Z M3.86844,3.8682 C6.15150923,1.58513077 9.81673615,1.52659053 12.170639,3.69257929 L12.3537,3.8682 L14.1234,5.63783 C14.7091,6.22362 14.7091,7.17337 14.1234,7.75916 C13.5742125,8.30832875 12.7051031,8.3426518 12.1159254,7.8621209 L12.002,7.75915 L10.2324,5.98952 C9.06083,4.81795 7.16134,4.81795 5.98976,5.98952 C4.8650528,7.1142272 4.82006451,8.90979469 5.85479514,10.0882061 L5.98976,10.2322 L7.7594,12.0018 C8.34518,12.5876 8.34518,13.5373 7.7594,14.1231 C7.21022187,14.6722875 6.34115703,14.7066117 5.75200131,14.2260727 L5.63808,14.1231 L3.86844,12.3535 C1.5253,10.0103 1.5253,6.21134 3.86844,3.8682 Z M20.0001,5.5 C20.8285,5.5 21.5001,6.17157 21.5001,7 C21.5001,7.82843 20.8285,8.5 20.0001,8.5 L19.0001,8.5 C18.1716,8.5 17.5001,7.82843 17.5001,7 C17.5001,6.17157 18.1716,5.5 19.0001,5.5 L20.0001,5.5 Z M16.0001,1.5 C16.7797706,1.5 17.4205457,2.09488554 17.4932332,2.85553954 L17.5001,3 L17.5001,5 C17.5001,5.82843 16.8285,6.5 16.0001,6.5 C15.2203353,6.5 14.5796433,5.90511446 14.5069659,5.14446046 L14.5001,5 L14.5001,3 C14.5001,2.17157 15.1716,1.5 16.0001,1.5 Z" id="形状" fill="#09244B"></path>
            </g>
        </g>
    </g>
</svg>

<svg xmlns="http://www.w3.org/2000/svg" width="24" height="24"><g fill="none" fill-rule="nonzero"><path d="M24 0v24H0V0h24ZM12.593 23.258l-.011.002-.071.035-.02.004-.014-.004-.071-.035c-.01-.004-.019-.001-.024.005l-.004.01-.017.428.005.02.01.013.104.074.015.004.012-.004.104-.074.012-.016.004-.017-.017-.427c-.002-.01-.009-.017-.017-.018Zm.265-.113-.013.002-.185.093-.01.01-.003.011.018.43.005.012.008.007.201.093c.012.004.023 0 .029-.008l.004-.014-.034-.614c-.003-.012-.01-.02-.02-.022Zm-.715.002a.023.023 0 0 0-.027.006l-.006.014-.034.614c0 .012.007.02.017.024l.015-.002.201-.093.01-.008.004-.011.017-.43-.003-.012-.01-.01-.184-.092Z"/><path fill="#09244B" d="M8 17.5a1.5 1.5 0 0 1 1.493 1.356L9.5 19v2a1.5 1.5 0 0 1-2.993.144L6.5 21v-2A1.5 1.5 0 0 1 8 17.5Zm8.245-7.62a1.5 1.5 0 0 1 2.007-.102l.114.102 1.766 1.766a6 6 0 0 1-8.302 8.661l-.183-.175-1.766-1.766a1.5 1.5 0 0 1 2.007-2.225l.114.103 1.766 1.766a3 3 0 0 0 4.378-4.098l-.135-.144-1.766-1.766a1.5 1.5 0 0 1 0-2.122ZM5 15.5a1.5 1.5 0 0 1 .145 2.993L5 18.5H4a1.5 1.5 0 0 1-.144-2.993L4 15.5h1Zm3.818-6.682a1.5 1.5 0 0 1 2.007-.103l.114.103 4.243 4.243a1.5 1.5 0 0 1-2.007 2.224l-.114-.103-4.243-4.243a1.5 1.5 0 0 1 0-2.121Zm-4.95-4.95a6 6 0 0 1 8.303-.175l.183.175 1.77 1.77a1.5 1.5 0 0 1-2.008 2.224l-.114-.103-1.77-1.77a3 3 0 0 0-4.377 4.1l.135.143 1.77 1.77a1.5 1.5 0 0 1-2.008 2.224l-.114-.103-1.77-1.77a6 6 0 0 1 0-8.485ZM20 5.5a1.5 1.5 0 0 1 0 3h-1a1.5 1.5 0 1 1 0-3h1Zm-4-4a1.5 1.5 0 0 1 1.493 1.356L17.5 3v2a1.5 1.5 0 0 1-2.993.144L14.5 5V3A1.5 1.5 0 0 1 16 1.5Z"/></g></svg>
